X: 384
T:Cueurs desolez par toute nation / Plorans ploravit
N: Derived from Jos2903-Cueurs_desolez__Plorans_ploravit.krn
C: Josquin des Prez
%%abc-version 2.0
%%abcx-abcm2ps-target-version 5.9.1 (29 Sep 2008)
%%abc-creator hum2abc beta
%%abcx-conversion-date 2019/02/12 16:15:55
%%abc-edited-by Jesse Rodin
%%abc-edited-by Will Watson 22/08/2011
%%abcx-initial-encoding-date 2011/08/22/
%%humdrum-veritas 447835156
%%humdrum-veritas-data 409884144
%%linebreak <none>
%%barnumbers 0
L: 1/4
M: 2/1
Q: 1/2=120
V: 1 clef=treble
V: 2 clef=treble
V: 3 clef=treble-8
V: 4 clef=bass
V: 5 clef=bass
K: F
[V:1] d8 | 
[V:2] F8 | 
[V:3] A8- | 
[V:4] z8 | 
[V:5] D,8 | 
[V:1] d4d4 | 
[V:2] F4F4 | 
[V:3] A8 | 
[V:4] z8 | 
[V:5] D,4D,4 | 
[V:1] c8 | 
[V:2] E6A2- | 
[V:3] A4A4 | 
[V:4] z8 | 
[V:5] A,,8 | 
[V:1] z4c4 | 
[V:2] A2GFE2A2 | 
[V:3] c8 | 
[V:4] z8 | 
[V:5] z4A,,4 | 
[V:1] d6c2 | 
[V:2] D3EF4 | 
[V:3] B6A2 | 
[V:4] z8 | 
[V:5] B,,6F,2 | 
[V:1] B2A2G4 | 
[V:2] _E2D3CC2 | 
[V:3] G8 | 
[V:4] z8 | 
[V:5] G,2F,2_E,4 | 
[V:1] F3GABA2 | 
[V:2] D3EF3G | 
[V:3] A4z2A2- | 
[V:4] F,8- | 
[V:5] D,8 | 
[V:1] F3GABA2- | 
[V:2] A4z2F2 | 
[V:3] ABc2F2f2 | 
[V:4] F,8 | 
[V:5] z4D,4 | 
[V:1] A2G4^F2 | 
[V:2] c4c4 | 
[V:3] e2d2d2c2 | 
[V:4] G,4A,4 | 
[V:5] C,2B,,2A,,2A,,2 | 
[V:1] G8 | 
[V:2] B4G4 | 
[V:3] d2G2d2e2 | 
[V:4] B,8 | 
[V:5] G,,4z2G,,2 | 
[V:1] z2D2F2G2 | 
[V:2] A6G2 | 
[V:3] f6e2 | 
[V:4] A,8- | 
[V:5] D,6E,2 | 
[V:1] A6F2 | 
[V:2] F4F4 | 
[V:3] c4d4 | 
[V:4] A,8 | 
[V:5] F,4D,4 | 
[V:1] G4c4 | 
[V:2] E8 | 
[V:3] B4c4 | 
[V:4] G,6A,2 | 
[V:5] E,4z2C,2 | 
[V:1] B3AG4 | 
[V:2] z4D4 | 
[V:3] d4z2d2 | 
[V:4] B,8 | 
[V:5] G,3G,G,2G,2 | 
[V:1] A4z2E2 | 
[V:2] F2F2E4 | 
[V:3] d2d2c3B | 
[V:4] A,8- | 
[V:5] D,4z2A,,2 | 
[V:1] F6F2 | 
[V:2] z2D2A3A | 
[V:3] A2d2d2d2 | 
[V:4] A,8- | 
[V:5] D,3D,D,2D,2 | 
[V:1] E4A4 | 
[V:2] A2A2E4 | 
[V:3] c3BA2c2- | 
[V:4] A,8 | 
[V:5] A,,4A,,4 | 
[V:1] G4z2G2 | 
[V:2] E4G3G | 
[V:3] c2BAG4 | 
[V:4] z8 | 
[V:5] C,3C,C,2C,2 | 
[V:1] B6AG | 
[V:2] G2G2D4 | 
[V:3] z2G4FE | 
[V:4] z8 | 
[V:5] G,,8 | 
[V:1] F3GA4- | 
[V:2] z2D2F4- | 
[V:3] D4d4 | 
[V:4] A,8 | 
[V:5] z4D,4 | 
[V:1] A8- | 
[V:2] F2E2D2C2 | 
[V:3] c3BA3G | 
[V:4] A,6A,2 | 
[V:5] F,6E,2 | 
[V:1] A4z2F2 | 
[V:2] F6ED | 
[V:3] F3ED4 | 
[V:4] A,4A,4 | 
[V:5] D,2D,2F,4- | 
[V:1] c2F2c3B | 
[V:2] C2F2E2D2- | 
[V:3] z4z2D2 | 
[V:4] A,8 | 
[V:5] F,2E,D,C,2D,2 | 
[V:1] A2G2F4 | 
[V:2] D2C2F3G | 
[V:3] E2C2D2F2- | 
[V:4] z4A,4 | 
[V:5] A,,4z2F,,2 | 
[V:1] F4E4- | 
[V:2] A4z2c2 | 
[V:3] F2EDC3D | 
[V:4] A,8 | 
[V:5] F,,3G,,A,,3B,, | 
[V:1] E4z4 | 
[V:2] cBAGBAGF | 
[V:3] E4z2A2 | 
[V:4] G,4F,4 | 
[V:5] C,4D,4 | 
[V:1] z4G4 | 
[V:2] E2F4E2 | 
[V:3] c2d2c4 | 
[V:4] G,8 | 
[V:5] C,2B,,2C,4 | 
[V:1] A4F4 | 
[V:2] F4z2A2 | 
[V:3] c3BAGF2- | 
[V:4] F,8 | 
[V:5] F,,4z4 | 
[V:1] c6B2 | 
[V:2] A2G2A4- | 
[V:3] F2E2F4 | 
[V:4] z8 | 
[V:5] C,4F,4- | 
[V:1] A2G2F3E | 
[V:2] A4A4 | 
[V:3] c4d4- | 
[V:4] F,8 | 
[V:5] F,2E,2D,3C, | 
[V:1] DCF4E2 | 
[V:2] B8 | 
[V:3] d4B4 | 
[V:4] G,4G,4 | 
[V:5] B,,2A,,2G,,4 | 
[V:1] F2E2C2C2 | 
[V:2] A8- | 
[V:3] c3BA2G2 | 
[V:4] A,8 | 
[V:5] F,,2C,2F,3E, | 
[V:1] D2E2F4 | 
[V:2] A4z4 | 
[V:3] F2E2DCF2- | 
[V:4] A,4B,4- | 
[V:5] D,2C,2B,,2A,,2 | 
[V:1] G4A4 | 
[V:2] z8 | 
[V:3] F2E2F4 | 
[V:4] B,4A,4 | 
[V:5] G,,4F,,4 | 
[V:1] D4G3F | 
[V:2] z4G4 | 
[V:3] z8 | 
[V:4] G,4G,4- | 
[V:5] z4C,4- | 
[V:1] E2D2C4 | 
[V:2] c6B2 | 
[V:3] z8 | 
[V:4] G,4A,4- | 
[V:5] C,4F,4- | 
[V:1] c4B2A2 | 
[V:2] A2G2F2E2 | 
[V:3] F8 | 
[V:4] A,4z4 | 
[V:5] F,2E,2D,2C,2 | 
[V:1] G2F2B2B2 | 
[V:2] DCF4E2 | 
[V:3] G4G4 | 
[V:4] z8 | 
[V:5] B,,2A,,2G,,2G,,2 | 
[V:1] A4F4 | 
[V:2] F4z2F2 | 
[V:3] A4D4 | 
[V:4] z4A,4 | 
[V:5] F,,4z4 | 
[V:1] c4z4 | 
[V:2] F2E2D2D2 | 
[V:3] F2C2F3G | 
[V:4] A,6A,2 | 
[V:5] z4D,4 | 
[V:1] z4z2A2- | 
[V:2] C4z4 | 
[V:3] A2F2f3e | 
[V:4] A,4A,4 | 
[V:5] F,4D,2F,2- | 
[V:1] ABc2d4 | 
[V:2] z4z2D2 | 
[V:3] dcc4=B2 | 
[V:4] G,4F,4 | 
[V:5] F,2E,2D,4 | 
[V:1] G3AB3A | 
[V:2] E2C2D4- | 
[V:3] c2G3AB2- | 
[V:4] G,6F,E, | 
[V:5] C,3B,,/A,,/G,,3A,, | 
[V:1] F3GA4- | 
[V:2] D2E2F4 | 
[V:3] B2c2c4- | 
[V:4] D,2C,2F,G,A,B, | 
[V:5] B,,2A,,2F,,3G,, | 
[V:1] A4z4 | 
[V:2] E2CDEFG2- | 
[V:3] c4z2d2 | 
[V:4] C3B,A,G,B,2- | 
[V:5] A,,3B,,C,2B,,2 | 
[V:1] z4G4 | 
[V:2] GFF4E2 | 
[V:3] d2B2c4 | 
[V:4] B,A,G,F,G,4 | 
[V:5] D,4C,4 | 
[V:1] A2F2c3B | 
[V:2] F8- | 
[V:3] c4A3B | 
[V:4] F,8- | 
[V:5] z4F,,4 | 
[V:1] A3GF2E2 | 
[V:2] F8- | 
[V:3] cAd4c2 | 
[V:4] F,8- | 
[V:5] F,,2F,,2B,,4 | 
[V:1] D4C4 |]  
[V:2] F8 |]  
[V:3] B4A4 |]  
[V:4] F,8 |]  
[V:5] B,,4F,,4 |]  



